X: 363
M: C
L: 1/8
K: G
g | dBAG FAAc | BGBd g2(fe) | dBAG FAAB | EGFA G2G :|
d | ggfg afed | ggfg a2d2 | g2(fg) afed | egfa g2(g ||


